X:48
T:Oromond Sound
R:reel
C:Paddy O'Brien
Z:Transcribed by Dave Marshall
M:C|
K:Ador
|: A2ed BedB | A~G3 AGEG | A2ed Bdef | g2fa gedB |
eA (3AAA B2dB | AGEF GBAG | EA (3AAA GABd | gedB A4 :|
|:efge agfg | e~a3 edBd | egfa g2ge | dg2e dBGB |
~c3c d2cd | efge a2ga | b~g3 agab | gedB A4 :|
